X:5
T:Betty Matheson's
R:jig
C:Howie MacDonald
D:Howie, Dave  & Mac
Z:Paul Stewart Cranford (P.S.C.), <http://www.cranfordpub.com>
L:1/8
M:6/8
Q:300
K:D
fg|{f/g/}a2 f dAF|ABA AFA|faf dAF|Eee efg|
a2 f dAF|BcB BAF|BdB AFE|[1FDD D:|[2FDD DCB,||
|:A,DF DFA|GBB Bcd|DFA Adf|gfg efg|
a2 f dAF|BcB BAF|BdB AFE|[1FDD DCB,:|[2FDD D||
fg|{f/g/}a3 afd|d B3 fg|a2 f dAF|Eee efg|
a2 f dAF|BcB BAF|BdB AFE|[1FDD D:|[2FDD DCB,||
|:A,DF DFA|GBB Bcd|DFA Adf|gfg efg|
a2 f dAF|BcB BAF|BdB AFE|[1FDD DCB,:|[2FDD D||
